!!!!SEGMENT: pl-sa--155-a-iv-5--001-005_luna-georgius--vesperae-in-d-laudate-dominum.krn
!!!cenid: 17xx:524
!!!COM: Luna, Georgius
!!!COM-rismID: pe41010079
!!!CDT:
!!!CNT:
!!!OPR: Vesperae in D
!!!OTL: Laudate Dominum
!!!OMV: 005
!!!PDT:
!!!AGN: Sacred; Vespers
!!!YEC: Copyright 2022 Narodowy Instytut Fryderyka Chopina (https://polishscores.org)
!!!YEM: License CC-BY-4.0 (https://creativecommons.org/licenses/by/4.0)
!!!SMS-siglum: PL-SA
!!!SMS-shelfmark: 155/A IV 5
!!!SMS-shelfwork: 001-005 M
!!!SMS-variant:
!!!SMS-altvar:
!!!NIFC-rismSourceID: 1001070698
!!!NIFC-rismChildID: 1001070698
!!!NIFC-islandoraID: none
!!!URL-pdf-islandora:
!!!URL-scan: https://bc.bdsandomierz.pl/dlibra/publication/1541/edition/1509/content @EN{Scan in the Sandomierz Diocese Digital Library} @PL{Skany w portalu Cyfrowa Biblioteka Diecezjalna w Sandomierzu}
!!!IIIF:
!!!ONB-nifc: UWAGA: części Vesperae: Dixit Dominus, Confitebor, Beatus vir, Laudate pueri,
!!!AIN: 1 organ 1 soprn 1 tenor 2 violn
!!!key: D
!!!filter-modern: sic -sq | shed -e "s/(LO:DY.*):t=(.*$)/$1:T=$2/L; s/LO:DY(.*)(:a:)(.*)/LO:dy:$1$2$3/L; s/LO:DY(.*)(:b:)(.*)/LO:dy:$1$2$3/L; s/LO:DY(.*)(:[ab])$/LO:dy:$1$2/L; s/LO:DY(.*)(:rj:)(.*)/LO:dy:$1$2$3/L" | -shed -e "s/TX(.*):t=P:/tx$1:t=P:/LG" | shed -k -e "s/LO:N:vis/LO:n:vis:/L" | shed -e "s/:rj/:RJ/L" | shed -e "s/^(\d+[\/\\]right)/$1yy/I;s/^(\d+[\/\\]left)/$1yy/I" | shed -e "s/LO:DY:(a|b|rj)/LO:dy:$1/L" | shed -e "s/-//B" | modori -m | tie -s | autostem -r | humtr -p
**kern	**dynam	**kern	**dynam	**kern	**dynam	**kern	**text	**mod-text	**kern	**text	**mod-text
*group3	*	*group2	*	*group2	*	*group1	*	*	*group1	*	*
*part5	*	*part4	*	*part3	*	*part2	*	*	*part1	*	*
*staff5	*	*staff4	*	*staff3	*	*staff2	*	*	*staff1	*	*
*ICklav	*	*ICstr	*	*ICstr	*	*ICvox	*	*	*ICvox	*	*
*Iorgan	*	*Ivioln	*	*Ivioln	*	*Itenor	*	*	*Isoprn	*	*
*I"Fundamento	*	*I"Violino Secundo	*	*I"Violino Primo	*	*I"Tenor	*	*	*I"Canto	*	*
*mI"Basso continuo	*	*mI"Violino II	*	*mI"Violino I	*	*mI"Tenore	*	*	*mI"Soprano	*	*
*I'bc	*	*I'vl 2	*	*I'vl 1	*	*I'T	*	*	*I'S	*	*
*clefF4	*	*clefG2	*	*clefG2	*	*clefC4	*	*	*clefC1	*	*
*	*	*	*	*	*	*mclefG2v	*	*	*mclefG2	*	*
*k[f#c#]	*	*k[f#c#]	*	*k[f#c#]	*	*k[f#c#]	*	*	*k[f#c#]	*	*
*D:	*	*D:	*	*D:	*	*D:	*	*	*D:	*	*
*M4/4	*	*M4/4	*	*M4/4	*	*M4/4	*	*	*M4/4	*	*
*met(c)	*	*met(c)	*	*met(c)	*	*met(c)	*	*	*met(c)	*	*
*mmet(c)	*	*mmet(c)	*	*mmet(c)	*	*mmet(c)	*	*	*mmet(c)	*	*
!!!OMD:
!!!OMD-mod: Allegro non molto
!LO:TX:b:t=Laudate Dominum:mod=	!	!	!	!LO:TX:b:t=Laudate Dominum:mod=	!	!	!	!	!	!	!
!LO:TX:a:t=allo ro mol:mod=	!	!LO:TX:b:t=Laudate Dnu:mod=	!	!LO:TX:a:t=Allo:mod=	!	!	!	!	!	!	!
8r	.	8a/	.	8a/	.	8r	.	.	8r	.	.
=1	=1	=1	=1	=1	=1	=1	=1	=1	=1	=1	=1
8d\L	.	8f#/	.	8dd\	.	00r	.	.	00r	.	.
8c#\	.	4f#/	.	4dd\	.	.	.	.	.	.	.
8B\	.	.	.	.	.	.	.	.	.	.	.
8A\J	.	8ff#\	.	8ddd\	.	.	.	.	.	.	.
8B\L	.	8f#/	.	8dd\	.	.	.	.	.	.	.
8A\	.	4f#/	.	4dd\	.	.	.	.	.	.	.
8G\	.	.	.	.	.	.	.	.	.	.	.
8F#\J	.	8ff#\	.	8ddd\	.	.	.	.	.	.	.
=2	=2	=2	=2	=2	=2	=2	=2	=2	=2	=2	=2
!LO:TX:t=P:problem:mixed beam	!	!	!	!	!	!	!	!	!	!	!
8G\L	.	8b\L	.	8ee\L	.	.	.	.	.	.	.
8E\	.	8gg\	.	8bb\	.	.	.	.	.	.	.
8A\	.	8ff#\	.	8aa\	.	.	.	.	.	.	.
8AA/J	.	8ee\J	.	8gg\J	.	.	.	.	.	.	.
!LO:TX:t=P:problem:mixed beam	!	!	!	!	!	!	!	!	!	!	!
8D/L	.	8dd\L	.	16ff#\LL	.	.	.	.	.	.	.
.	.	.	.	16ee\J	.	.	.	.	.	.	.
8d\	.	8ff#\	.	8dd\J	.	.	.	.	.	.	.
8A\	.	8dd\	.	8r	.	.	.	.	.	.	.
8F#\J	.	8a\J	.	8a/	.	.	.	.	.	.	.
=3	=3	=3	=3	=3	=3	=3	=3	=3	=3	=3	=3
8D/L	.	8f#/	.	8d/	.	.	.	.	.	.	.
8C#/	.	4f#/	.	4d/	.	.	.	.	.	.	.
8BB/	.	.	.	.	.	.	.	.	.	.	.
8AA/J	.	8f#/	.	8dd\	.	.	.	.	.	.	.
8BB/L	.	8f#/	.	8d/	.	.	.	.	.	.	.
8AA/	.	4f#/	.	4d/	.	.	.	.	.	.	.
8GG/	.	.	.	.	.	.	.	.	.	.	.
8FF#/J	.	8f#/	.	8dd\	.	.	.	.	.	.	.
=4	=4	=4	=4	=4	=4	=4	=4	=4	=4	=4	=4
!	!	!	!	!LO:TX:t=P:problem:mixed beam	!	!	!	!	!	!	!
8GG/L	.	8B/L	.	8e/L	.	.	.	.	.	.	.
8EE/	.	8g/	.	8b\	.	.	.	.	.	.	.
8AA/	.	8f#/	.	8a\	.	.	.	.	.	.	.
8AA/J	.	8e/J	.	8g\J	.	.	.	.	.	.	.
8D\L	.	8d/L	.	16f#/LL	.	.	.	.	.	.	.
.	.	.	.	16e/J	.	.	.	.	.	.	.
8E\	.	16f#/L	.	8d/J	.	.	.	.	.	.	.
.	.	16g/JJ	.	.	.	.	.	.	.	.	.
8F#\	.	8a/L	.	16r	.	.	.	.	.	.	.
.	.	.	.	16a\LL	.	.	.	.	.	.	.
8D\J	.	8f#/J	.	16dd\	.	.	.	.	.	.	.
.	.	.	.	16ff#\JJ	.	.	.	.	.	.	.
=5	=5	=5	=5	=5	=5	=5	=5	=5	=5	=5	=5
.	.	.	.	8qqcc	.	.	.	.	.	.	.
!	!	!LO:TX:t=P:problem:mixed beam	!	!	!	!	!	!	!	!	!
8G\L	.	8d/L	.	[4b\	.	0r	.	.	1r	.	.
8F#\	.	16b\L	.	.	.	.	.	.	.	.	.
.	.	16a\JJ	.	.	.	.	.	.	.	.	.
8G\	.	8b\L	.	16b\LL]	.	.	.	.	.	.	.
.	.	.	.	16b\	.	.	.	.	.	.	.
8E\J	.	8g\J	.	16ee\	.	.	.	.	.	.	.
.	.	.	.	16gg\JJ	.	.	.	.	.	.	.
.	.	.	.	8qqdd/	.	.	.	.	.	.	.
!	!	!	!	!LO:MO:mod=[4cc#	!	!	!	!	!	!	!
8A\L	.	8r	.	[4cc#y\	.	.	.	.	.	.	.
8G\	.	16cc#\LL	.	.	.	.	.	.	.	.	.
.	.	16b\JJ	.	.	.	.	.	.	.	.	.
8A\	.	8cc#\L	.	16cc#\LL]	.	.	.	.	.	.	.
.	.	.	.	16cc#\	.	.	.	.	.	.	.
8F#\J	.	8a\J	.	16ff#\	.	.	.	.	.	.	.
.	.	.	.	16aa\JJ	.	.	.	.	.	.	.
=6	=6	=6	=6	=6	=6	=6	=6	=6	=6	=6	=6
.	.	.	.	8qqee/	.	.	.	.	.	.	.
8B\L	.	8r	.	[4dd\	.	.	.	.	2r	.	.
8A\	.	16dd\LL	.	.	.	.	.	.	.	.	.
.	.	16cc#\JJ	.	.	.	.	.	.	.	.	.
8B\	.	8dd\L	.	16dd\LL]	.	.	.	.	.	.	.
.	.	.	.	16dd\	.	.	.	.	.	.	.
8G\J	.	8b\J	.	16gg\	.	.	.	.	.	.	.
.	.	.	.	16bb\JJ	.	.	.	.	.	.	.
!	!	!	!	!LO:TX:t=P:problem:mixed beam	!	!	!	!	!	!	!
8A\L	.	8e/L	.	8cc#\L	.	.	.	.	4r	.	.
16F#\L	.	8f#/	.	8dd\	.	.	.	.	.	.	.
16G\JJ	.	.	.	.	.	.	.	.	.	.	.
!LO:TX:a:t=Solo:mod=	!	!	!	!	!	!	!	!	!	!	!
8A\L	.	8e/	.	8e/	.	.	.	.	8r	.	.
8A\J	.	8e/J	.	8cc#\J	.	.	.	.	8a\	Lau-	Lau-
!	!	!LO:LB:g=original	!	!LO:LB:g=original	!	!	!	!	!	!	!
=7	=7	=7	=7	=7	=7	=7	=7	=7	=7	=7	=7
8d\L	.	4f#/	.	4dd\	.	1r	.	.	4dd\	-da-	-da-
8c#\	.	.	.	.	.	.	.	.	.	.	.
8B\	.	4r	.	4r	.	.	.	.	4dd\	-te	-te
8A\J	.	.	.	.	.	.	.	.	.	.	.
8B\L	.	2r	.	2r	.	.	.	.	4dd\	Do-	Do-
8A\	.	.	.	.	.	.	.	.	.	.	.
8G\	.	.	.	.	.	.	.	.	8dd\	-mi-	-mi-
8F#\J	.	.	.	.	.	.	.	.	8dd\	-num	-num
=8	=8	=8	=8	=8	=8	=8	=8	=8	=8	=8	=8
!LO:TX:t=P:problem:mixed beam	!	!	!	!	!	!	!	!	!	!	!
8G\L	.	2r	.	2r	.	2r	.	.	8ee\L	om-	om-
8E\	.	.	.	.	.	.	.	.	8gg\J	.	.
8A\	.	.	.	.	.	.	.	.	8ff#\L	-nes	-nes
8AA/J	.	.	.	.	.	.	.	.	8ee\J	.	.
!LO:LB:g=original	!	!	!	!	!	!	!	!	!	!	!
8D\L	.	4r	.	4r	.	4r	.	.	16ff#\LL	gen-	gen-
.	.	.	.	.	.	.	.	.	16ee\JJ	.	.
16E\L	.	.	.	.	.	.	.	.	8dd\	-tes	-tes
16F#\JJ	.	.	.	.	.	.	.	.	.	.	.
16G\LL	.	8r	.	8r	.	8r	.	.	8r	.	.
16A\	.	.	.	.	.	.	.	.	.	.	.
16B\	.	8a/	.	8a/	.	8d\	Lau-	Lau-	8ff#\	lau-	lau-
16c#\JJ	.	.	.	.	.	.	.	.	.	.	.
!	!	!	!	!	!	!	!	!	!LO:LB:g=original	!	!
=9	=9	=9	=9	=9	=9	=9	=9	=9	=9	=9	=9
8d\L	.	8f#/	.	8dd\	.	4d\	-da-	-da-	4ff#\	-da-	-da-
8c#\	.	4f#/	.	4dd\	.	.	.	.	.	.	.
8B\	.	.	.	.	.	4d\	-te	-te	4ff#\	-te	-te
8A\J	.	8f#/	.	8ddd\	.	.	.	.	.	.	.
8B\L	.	8f#/	.	8dd\	.	4d\	e-	e-	4ff#\	e-	e-
8A\	.	4f#/	.	4dd\	.	.	.	.	.	.	.
8G\	.	.	.	.	.	4d\	-um	-um	4ff#\	-um	-um
8F#\J	.	8ff#\	.	8ddd\	.	.	.	.	.	.	.
=10	=10	=10	=10	=10	=10	=10	=10	=10	=10	=10	=10
!LO:TX:t=P:problem:mixed beam	!	!	!	!	!	!	!	!	!	!	!
8G\L	.	8b\L	.	8ee\L	.	4B\	om-	om-	4ee\	om-	om-
8E\	.	8gg\	.	8bb\	.	.	.	.	.	.	.
8A\	.	8ff#\	.	8aa\	.	4c#\	-nes	-nes	4ee\	-nes	-nes
8AA/J	.	8ee\J	.	8gg\J	.	.	.	.	.	.	.
8D\L	.	16dd\LL	.	16ff#\LL	.	16d\	po-	po-	16ff#\	po-	po-
.	.	16cc#\J	.	16ee\J	.	16d\	-pu-	-pu-	16ff#\	-pu-	-pu-
8E\	.	8dd\J	.	8dd\J	.	8d\	-li	-li	8ff#\	-li	-li
!	!	!	!	!LO:TX:t=P:problem:mixed beam	!	!	!	!	!	!	!
8F#\	.	16a\LL	.	32dd\LLL	.	8A/	quo-	quo-	8dd\	quo-	quo-
.	.	.	.	32d/	.	.	.	.	.	.	.
.	.	16a\	.	32e/	.	.	.	.	.	.	.
.	.	.	.	32f#/	.	.	.	.	.	.	.
8E\J	.	16a\	.	32g/	.	16A/	-ni-	-ni-	16dd\	-ni-	-ni-
.	.	.	.	32a/	.	.	.	.	.	.	.
.	.	16a\JJ	.	32b/	.	16A/	-am	-am	16dd\	-am	-am
.	.	.	.	32cc#/JJJ	.	.	.	.	.	.	.
=11	=11	=11	=11	=11	=11	=11	=11	=11	=11	=11	=11
8D\L	.	16a\LL	.	16dd\LL	.	8A/	Con-	con-	8dd\	Con-	con-
.	.	16a\	.	16ee\	.	.	.	.	.	.	.
8E\	.	16a\	.	16ff#\	.	8A/	-fir-	-fir-	8dd\	-fir-	-fir-
.	.	16a\JJ	.	16gg\JJ	.	.	.	.	.	.	.
!	!	!LO:TX:t=P:problem:nadmiarowa grupa szesnastkowa	!	!	!	!	!	!	!	!	!
!	!	!LO:N:vis=16	!	!	!	!	!	!	!	!	!
!	!	!LO:MO:mod=16aLL	!	!	!	!	!	!	!	!	!
8F#\	.	32a\LLL	.	8aa\L	.	8A/	-ma-	-ma-	8dd\	-ma-	-ma-
!	!	!LO:N:vis=16	!	!	!	!	!	!	!	!	!
!	!	!LO:MO:mod=.	!	!	!	!	!	!	!	!	!
.	.	32a\	.	.	.	.	.	.	.	.	.
!	!	!LO:N:vis=16	!	!	!	!	!	!	!	!	!
!	!	!LO:MO:mod=16a	!	!	!	!	!	!	!	!	!
.	.	32a\	.	.	.	.	.	.	.	.	.
!	!	!LO:N:vis=16	!	!	!	!	!	!	!	!	!
!	!	!LO:MO:mod=.	!	!	!	!	!	!	!	!	!
.	.	32a\JJJ	.	.	.	.	.	.	.	.	.
!	!	!LO:N:vis=16	!	!	!	!	!	!	!	!	!
!	!	!LO:MO:mod=16a	!	!	!	!	!	!	!	!	!
8D\J	.	32a\LLL	.	8ccn\J	.	8A/	-ta	-ta	8ccn\	-ta	-ta
!	!	!LO:N:vis=16	!	!	!	!	!	!	!	!	!
!	!	!LO:MO:mod=.	!	!	!	!	!	!	!	!	!
.	.	32a\	.	.	.	.	.	.	.	.	.
!	!	!LO:N:vis=16	!	!	!	!	!	!	!	!	!
!	!	!LO:MO:mod=16aJJ	!	!	!	!	!	!	!	!	!
.	.	32a\	.	.	.	.	.	.	.	.	.
!	!	!LO:N:vis=16	!	!	!	!	!	!	!	!	!
!	!	!LO:MO:mod=.	!	!	!	!	!	!	!	!	!
.	.	32a\JJJ	.	.	.	.	.	.	.	.	.
!LO:TX:t=P:problem:mixed beam	!	!	!	!	!	!	!	!	!	!	!
.	.	.	.	8qqcc/	.	.	.	.	.	.	.
8G\L	.	16d/LL	.	4b\	.	8G/	est	est	8b\	est	est
.	.	16d/	.	.	.	.	.	.	.	.	.
8GG/	.	16d/	.	.	.	16B\	su-	su-	16ee\	su-	su-
.	.	16d/JJ	.	.	.	16B\	-per	-per	16ee\	-per	-per
!	!	!	!	!LO:TX:t=P:problem:mixed beam	!	!LO:LB:g=original	!	!	!LO:LB:g=original	!	!
8G#X\	.	16b\LL	.	32ee\LLL	.	8B\	nos	nos	8ee\	nos	nos
.	.	.	.	32e/	.	.	.	.	.	.	.
.	.	16b\	.	32f#/	.	.	.	.	.	.	.
.	.	.	.	32g#X/	.	.	.	.	.	.	.
8F#\J	.	16b\	.	32a/	.	8B\	mi-	mi-	8ee\	mi-	mi-
.	.	.	.	32b/	.	.	.	.	.	.	.
.	.	16b\JJ	.	32cc#X/	.	.	.	.	.	.	.
.	.	.	.	32dd/JJJ	.	.	.	.	.	.	.
=12	=12	=12	=12	=12	=12	=12	=12	=12	=12	=12	=12
8E\L	.	16b\LL	.	16ee\LL	.	8B\	-se-	-se-	8ee\	-se-	-se-
.	.	16b\	.	16ff#\	.	.	.	.	.	.	.
8F#\	.	16b\	.	16gg#X\	.	8B\	-ri-	-ri-	8ee\	-ri-	-ri-
.	.	16b\JJ	.	16aa\JJ	.	.	.	.	.	.	.
8G#X\	.	16b\LL	.	8bb\L	.	8B\	-cor-	-cor-	8ee\	-cor-	-cor-
.	.	16b\	.	.	.	.	.	.	.	.	.
8E\J	.	16b\	.	8ddn\J	.	8B\	-dia	-dia	16ddn\	-di-	-di-
.	.	16b\JJ	.	.	.	.	.	.	16dd\	-a	-a
!LO:TX:t=P:problem:mixed beam	!	!	!	!LO:LB:g=original	!	!	!	!	!	!	!
8A\L	.	8a\L	.	16cc#\LL	.	8A/	e-	e-	8cc#\	e-	e-
.	.	.	.	16a\	.	.	.	.	.	.	.
8AA/	.	8cc#\	.	16cc#\	.	8A/	-jus	-jus	8cc#\	-jus	-jus
.	.	.	.	16ee\JJ	.	.	.	.	.	.	.
8D\	.	8a\	.	8.ff#\L	.	4A/	et	et	4ff#\	et	et
8D\J	.	8ff#\J	.	.	.	.	.	.	.	.	.
.	.	.	.	(32gg#X\LL	.	.	.	.	.	.	.
.	.	.	.	32aa\JJJ)	.	.	.	.	.	.	.
!	!	!LO:LB:g=original	!	!	!	!	!	!	!	!	!
=13	=13	=13	=13	=13	=13	=13	=13	=13	=13	=13	=13
!LO:TX:t=P:problem:mixed beam	!	!	!	!	!	!	!	!	!	!	!
8E\L	.	8.b\L	.	8.gg#X\L	.	8B\	ve-	ve-	8gg#X\	ve-	ve-
8E\	.	.	.	.	.	16d\	-ri-	-ri-	16ff#\	-ri-	-ri-
.	.	16dd\Jk	.	16ff#\Jk	.	16d\	-tas	-tas	16ff#\	-tas	-tas
8GG#X/	.	8.cc#\L	.	8.ee\L	.	8c#\	Do-	Do-	8ee\	Do-	Do-
8GG#/J	.	.	.	.	.	8B\	-mi-	-mi-	8dd\	-mi-	-mi-
.	.	16b\Jk	.	16dd\Jk	.	.	.	.	.	.	.
!	!	!LO:TX:t=P:problem:mixed beam	!	!	!	!	!	!	!	!	!
8AA/L	.	8a\L	.	4cc#\	.	4A\	-ni	-ni	4cc#\	-ni	-ni
8C#/	.	8ee\	.	.	.	.	.	.	.	.	.
*	*	*	*	*Xtuplet	*	*	*	*	*	*	*
8D/	.	8f#/	.	24ff#\LL	.	8F#/	ma-	ma-	16ff#\LL	ma-	ma-
.	.	.	.	24ee\	.	.	.	.	.	.	.
.	.	.	.	.	.	.	.	.	16dd\JJ	.	.
.	.	.	.	24dd\JJ	.	.	.	.	.	.	.
8D/J	.	8f#/J	.	24cc#\LL	.	8F#/	-net	-net	16b\LL	-net	-net
.	.	.	.	24b\	.	.	.	.	.	.	.
.	.	.	.	.	.	.	.	.	16a\JJ	.	.
.	.	.	.	24a\JJ	.	.	.	.	.	.	.
!	!	!	!	!	!	!	!	!	!LO:LB:g=original	!	!
=14	=14	=14	=14	=14	=14	=14	=14	=14	=14	=14	=14
!	!	!	!	!	!	!	!	!	!LO:SIC:v:s=8g#	!	!
8D\L	.	8B/L	.	8g#X/L	.	8B\	in	in	8g\	in	in
16C#\L	.	8c#/J	.	8a/	.	8c#\	ae-	ae-	8a\	ae-	ae-
16D\JJ	.	.	.	.	.	.	.	.	.	.	.
!LO:TX:t=P:problem:mixed beam	!	!	!	!	!	!	!	!	!	!	!
8E\L	.	4B/	.	8e/	.	4G#X/	-ter-	-ter-	4bT\	-ter-	-ter-
8EE/J	.	.	.	8g#/J	.	.	.	.	.	.	.
8AA/L	.	8c#/L	.	4a/	.	4A\	-num	-num	4a\	-num	-num
16AA/L	.	16c#/L	.	.	.	.	.	.	.	.	.
16BB/JJ	.	16d/JJ	.	.	.	.	.	.	.	.	.
8C#/L	.	8e/L	.	16r	.	4r	.	.	4r	.	.
.	.	.	.	16e/LL	.	.	.	.	.	.	.
8AA/J	.	8c#/J	.	16a/	.	.	.	.	.	.	.
.	.	.	.	16cc#/JJ	.	.	.	.	.	.	.
!LO:LB:g=original	!	!	!	!	!	!	!	!	!	!	!
=15	=15	=15	=15	=15	=15	=15	=15	=15	=15	=15	=15
.	.	.	.	8qqgn/	.	.	.	.	.	.	.
8D\L	.	4.A/	.	[4f#/	.	0r	.	.	0r	.	.
8C#\	.	.	.	.	.	.	.	.	.	.	.
8D\	.	.	.	16f#/LL]	.	.	.	.	.	.	.
.	.	.	.	16f#/	.	.	.	.	.	.	.
8BB\J	.	8f#/	.	16b/	.	.	.	.	.	.	.
.	.	.	.	16dd/JJ	.	.	.	.	.	.	.
.	.	.	.	8qqa/	.	.	.	.	.	.	.
8E\L	.	4.B/	.	[4g#X/	.	.	.	.	.	.	.
8D\	.	.	.	.	.	.	.	.	.	.	.
8E\	.	.	.	16g#/LL]	.	.	.	.	.	.	.
.	.	.	.	16g#/	.	.	.	.	.	.	.
!	!	!LO:SIC:v:s=8g#	!	!	!	!	!	!	!	!	!
8C#\J	.	8g/	.	16cc#/	.	.	.	.	.	.	.
.	.	.	.	16ee/JJ	.	.	.	.	.	.	.
=16	=16	=16	=16	=16	=16	=16	=16	=16	=16	=16	=16
.	.	.	.	8qqb/	.	.	.	.	.	.	.
8F#\L	.	4.c#/	.	[4a/	.	.	.	.	.	.	.
8E\	.	.	.	.	.	.	.	.	.	.	.
8F#\	.	.	.	16a/LL]	.	.	.	.	.	.	.
.	.	.	.	16a/	.	.	.	.	.	.	.
8D\J	.	8a/	.	16dd/	.	.	.	.	.	.	.
.	.	.	.	16ff#/JJ	.	.	.	.	.	.	.
8E\L	.	8B/L	.	8g#X/L	.	.	.	.	.	.	.
16C#\L	.	8c#/	.	8a/	.	.	.	.	.	.	.
16D\JJ	.	.	.	.	.	.	.	.	.	.	.
8E\L	.	8c#/	.	8e/	.	.	.	.	.	.	.
8E\J	.	8B/J	.	8g#/J	.	.	.	.	.	.	.
!	!	!	!	!	!	!LO:LB:g=original	!	!	!	!	!
=17	=17	=17	=17	=17	=17	=17	=17	=17	=17	=17	=17
8A\L	.	8c#/	.	8a/	.	4A\	Glo-	Glo-	4cc#\	Glo-	Glo-
8G#X\	.	4c#/	.	4a/	.	.	.	.	.	.	.
8F#\	.	.	.	.	.	8A\	-ri-	-ri-	8cc#\	-ri-	-ri-
8E\J	.	8cc#\	.	8aa\	.	8A\	-a	-a	8cc#\	-a	-a
!	!	!	!	!LO:LB:g=original	!	!	!	!	!	!	!
8F#\L	.	8c#/	.	8a/	.	4A\	Pa-	Pa-	4cc#\	Pa-	Pa-
8E\	.	4c#/	.	4a/	.	.	.	.	.	.	.
8D\	.	.	.	.	.	4A\	-tri	-tri	4cc#\	-tri	-tri
8C#\J	.	8cc#\	.	8aa\	.	.	.	.	.	.	.
=18	=18	=18	=18	=18	=18	=18	=18	=18	=18	=18	=18
!	!	!LO:TX:t=P:problem:skreslona grupa osemek	!	!	!	!	!	!	!	!	!
!	!	!LO:TX:t=P:problem:mixed beam	!	!	!	!	!	!	!	!	!
8D\L	.	8f#/L	.	8b\L	.	4F#/	Glo-	Glo-	4b\	Glo-	Glo-
8BB\J	.	8dd\	.	8ff#\	.	.	.	.	.	.	.
!LO:TX:t=P:problem:mixed beam	!	!	!	!	!	!	!	!	!	!	!
8E\L	.	8cc#\	.	8ee\	.	8G#X/	-ri-	-ri-	8b\	-ri-	-ri-
8EE/J	.	8b\J	.	8dd\J	.	8G#/	-a	-a	8b\	-a	-a
4AA/	.	16a/LL	.	16cc#\LL	.	16A/	Fi-	Fi-	16cc#\	Fi-	Fi-
.	.	16g#X/J	.	16b\J	.	16A/	-li-	-li-	16cc#\	-li-	-li-
.	.	8a/J	.	8a\J	.	8A/	-o	-o	8cc#\	-o	-o
8C#/L	.	8ee\L	.	16a\LL	.	8A/	et	et	8cc#\	et	et
.	.	.	.	16cc#\	.	.	.	.	.	.	.
8AA/J	.	8cc#\J	.	16ee\	.	8A/	Spi-	Spi-	8cc#\	Spi-	Spi-
.	.	.	.	16aa\JJ	.	.	.	.	.	.	.
!	!	!LO:LB:g=original	!	!	!	!	!	!	!	!	!
=19	=19	=19	=19	=19	=19	=19	=19	=19	=19	=19	=19
!LO:TX:t=P:problem:mixed beam	!	!LO:TX:t=P:problem:mixed beam	!	!	!	!	!	!	!	!	!
8D\L	.	8f#/L	.	8b\L	.	4F#/	-ri-	-ri-	4b\	-ri-	-ri-
8BB\	.	8dd\	.	8ff#\	.	.	.	.	.	.	.
!	!	!	!	!	!	!	!	!	!LO:MO:mod=8b	!	!
8E\	.	8cc#\	.	8ee\	.	8G#X/	-tu-	-tu-	4b\	-tui	-tu-
!	!	!	!	!	!	!	!	!	!LO:MO:null:mod=8b	!	!
8EE/J	.	8b\J	.	8dd\J	.	8G#/	-i	-i	.	.	-i
!	!	!	!	!	!	!	!	!	!LO:LB:g=original	!	!
4AA/	.	16a/LL	.	16cc#\LL	.	8A/	San-	San-	8cc#\	San-	San-
.	.	16g#X/J	.	16b\J	.	.	.	.	.	.	.
.	.	8a/J	.	8a\J	.	8A/	-cto	-cto	8cc#\	-cto	-cto
8C#/L	.	16e/LL	.	16a\LL	.	8c#\	Si-	Si-	8ee\	Si-	Si-
.	.	16a/JJ	.	16cc#\	.	.	.	.	.	.	.
8AA/J	.	16cc#\LL	.	16ee\	.	8c#\	-cut	-cut	8ee\	-cut	-cut
.	.	16ff#\JJ	.	16aa\JJ	.	.	.	.	.	.	.
=20	=20	=20	=20	=20	=20	=20	=20	=20	=20	=20	=20
!LO:TX:t=P:problem:mixed beam	!	!	!	!	!	!	!	!	!	!	!
8AA/L	.	4ee\	.	4gg\	.	4c#\	e-	e-	4gg\	e-	e-
16A\L	.	.	.	.	.	.	.	.	.	.	.
16G#X\JJ	.	.	.	.	.	.	.	.	.	.	.
!LO:TX:t=P:problem:mixed beam	!	!	!	!	!	!	!	!	!	!	!
8A\L	.	4ee\	.	4gg\	.	4c#\	-rat	-rat	4gg\	-rat	-rat
8AA/J	.	.	.	.	.	.	.	.	.	.	.
8AA/L	.	16ee\LL	.	16gg\LL	.	8c#\	in	in	8gg\	in	in
.	.	16dd\	.	16ff#\	.	.	.	.	.	.	.
8AA/	.	16cc#\	.	16ee\	.	8c#\	prin-	prin-	8gg\	prin-	prin-
.	.	16b\JJ	.	16dd\JJ	.	.	.	.	.	.	.
8AA/	.	16a/LL	.	16cc#\LL	.	8c#\	-ci-	-ci-	8gg\	-ci-	-ci-
!	!	!LO:MO:mod=16g	!	!	!	!	!	!	!	!	!
.	.	16gn/	.	16b\	.	.	.	.	.	.	.
8AA/J	.	16f#/	.	16a\	.	8c#\	-pi-	-pi-	8gg\	-pi-	-pi-
!	!	!	!	!LO:MO:mod=16gJJ	!	!	!	!	!	!	!
.	.	16e/JJ	.	16gn\JJ	.	.	.	.	.	.	.
!	!	!	!	!	!	!LO:LB:g=original	!	!	!	!	!
=21	=21	=21	=21	=21	=21	=21	=21	=21	=21	=21	=21
.	.	.	.	8qqg/	.	.	.	.	.	.	.
8D\L	.	4d/	.	4f#/	.	4d\	-o	-o	4ff#\	-o	-o
8E\	.	.	.	.	.	.	.	.	.	.	.
8F#\	.	4a/	.	16r	.	8r	.	.	8r	.	.
.	.	.	.	16a\LL	.	.	.	.	.	.	.
8D\J	.	.	.	16dd\	.	8A/	et	et	8dd\	et	et
.	.	.	.	16ff#\JJ	.	.	.	.	.	.	.
!	!	!	!	!	!	!	!	!	!LO:SIC:v:s=8qqcc	!	!
.	.	.	.	8qqccn/	.	.	.	.	8qqcc#/	.	.
8G\L	.	4.d/	.	[4b\	.	4D/	nunc	nunc	4b\	nunc	nunc
8F#\	.	.	.	.	.	.	.	.	.	.	.
8G\	.	.	.	16b\LL]	.	8r	.	.	8r	.	.
.	.	.	.	16b\	.	.	.	.	.	.	.
8E\J	.	8b\	.	16ee\	.	8B\	et	et	8ee\	et	et
.	.	.	.	16gg\JJ	.	.	.	.	.	.	.
!LO:LB:g=original	!	!	!	!	!	!	!	!	!	!	!
=22	=22	=22	=22	=22	=22	=22	=22	=22	=22	=22	=22
.	.	.	.	8qqdd/	.	.	.	.	8qqdd/	.	.
!	!	!	!	!LO:MO:mod=[4cc#X	!	!	!	!	!	!	!
8A\L	.	4.e/	.	4cc#X\	.	8E/	sem-	sem-	8cc#\	sem-	sem-
8G\	.	.	.	.	.	8E/	-per	-per	8cc#\	-per	-per
!	!	!	!	!LO:MO:mod=16cc#LL]	!	!	!	!	!LO:LB:g=original	!	!
8A\	.	.	.	16cc#\LL	.	8r	.	.	8r	.	.
.	.	.	.	16cc#\	.	.	.	.	.	.	.
8F#\J	.	8cc#\	.	16ff#\	.	16c#\	et	et	16ff#\	et	et
.	.	.	.	16aa\JJ	.	16c#\	in	in	16ff#\	in	in
.	.	.	.	8qqee/	.	.	.	.	.	.	.
!	!	!	!	!LO:MO:mod=[4dd	!	!	!	!	!	!	!
8B\L	.	4.f#/	.	4dd\	.	16F#/	sae-	sae-	16dd\	sae-	sae-
.	.	.	.	.	.	16F#/	-cu-	-cu-	16dd\	-cu-	-cu-
8A\	.	.	.	.	.	8F#/	-la	-la	8dd\	-la	-la
!	!	!	!	!LO:MO:mod=16ddLL]	!	!	!	!	!	!	!
8B\	.	.	.	16dd\LL	.	8r	.	.	8r	.	.
.	.	.	.	16dd\	.	.	.	.	.	.	.
8G\J	.	8dd\	.	16gg\	.	16d\	sae-	sae-	16gg\	sae-	sae-
.	.	.	.	16bb\JJ	.	16d\	-cu-	-cu-	16gg\	-cu-	-cu-
!	!	!	!	!LO:LB:g=original	!	!	!	!	!	!	!
=23	=23	=23	=23	=23	=23	=23	=23	=23	=23	=23	=23
!	!	!	!	!LO:TX:t=P:problem:mixed beam	!	!	!	!	!	!	!
8A\L	.	8e/L	.	8cc#\L	.	8c#\	-lo-	-lo-	8ee\	-lo-	-lo-
16F#\L	.	8f#/	.	8dd\	.	8d\	-rum	-rum	8ff#\	-rum	-rum
16G\JJ	.	.	.	.	.	.	.	.	.	.	.
!LO:TX:t=P:problem:mixed beam	!	!	!	!	!	!	!	!	!	!	!
8A\L	.	8e/	.	8e/	.	4c#\	a-	a-	4ee\	a-	a-
8AA/J	.	8e/J	.	8cc#\J	.	.	.	.	.	.	.
!	!LO:DY:a	!	!	!	!	!	!	!	!	!	!
!	!LO:DY:t=psmo	!	!LO:DY:ed=brack	!	!LO:DY:t=pia	!	!	!	!	!	!
!	!LO:MO:mod=p	!	!LO:MO:null:mod=p	!	!LO:DY:a	!	!	!	!	!	!
8D\L	pp	8f#/L	.	4dd\	p	4d\	-men	-men	4ff#\	-men	-men
8E\	.	16f#/L	.	.	.	.	.	.	.	.	.
.	.	16g/JJ	.	.	.	.	.	.	.	.	.
8F#\	.	8a/L	.	16r	.	8r	.	.	8r	.	.
.	.	.	.	16a\LL	.	.	.	.	.	.	.
8D\J	.	8f#/J	.	16dd\	.	8A/	a-	a-	8dd\	a-	a-
.	.	.	.	16ff#\JJ	.	.	.	.	.	.	.
=24	=24	=24	=24	=24	=24	=24	=24	=24	=24	=24	=24
!	!	!	!	!	!	!	!	!	!LO:SIC:v:s=8qqcc	!	!
.	.	.	.	8qqccn/	.	.	.	.	8qqcc#/	.	.
8G\L	.	4.d/	.	[4b\	.	4D/	-men	-men	4b\	-men	-men
8F#\	.	.	.	.	.	.	.	.	.	.	.
8G\	.	.	.	16b\LL]	.	8r	.	.	8r	.	.
.	.	.	.	16b\	.	.	.	.	.	.	.
8E\J	.	8b\	.	16ee\	.	8B\	a-	a-	8ee\	a-	a-
.	.	.	.	16gg\JJ	.	.	.	.	.	.	.
.	.	.	.	8qqdd/	.	.	.	.	8qqdd/	.	.
!	!	!	!	!LO:MO:mod=[4cc#	!	!	!	!	!	!	!
8A\L	.	4.e/	.	4cc#X\	.	4E/	-men	-men	4cc#\	-men	-men
8G\	.	.	.	.	.	.	.	.	.	.	.
!	!	!	!	!LO:MO:mod=16cc#LL]	!	!	!	!	!	!	!
8A\	.	.	.	16cc#\LL	.	8r	.	.	8r	.	.
.	.	.	.	16cc#\	.	.	.	.	.	.	.
8F#\J	.	8cc#\	.	16ff#\	.	8c#\	a-	a-	8ff#\	a-	a-
.	.	.	.	16aa\JJ	.	.	.	.	.	.	.
!	!	!	!	!	!	!LO:LB:g=original	!	!	!LO:LB:g=original	!	!
=25	=25	=25	=25	=25	=25	=25	=25	=25	=25	=25	=25
.	.	.	.	8qqee/	.	.	.	.	8qqee/	.	.
!	!	!LO:N:vis=4.	!	!LO:MO:mod=[4dd	!	!	!	!	!	!	!
!	!	!LO:MO:mod=4.f#	!	!	!	!	!	!	!	!	!
8B\L	.	8.f#/	.	4dd\	.	4F#/	-men	-men	4dd\	-men	-men
8A\	.	.	.	.	.	.	.	.	.	.	.
!	!	!LO:N:vis=8	!	!	!	!	!	!	!	!	!
!	!	!LO:MO:mod=.	!	!	!	!	!	!	!	!	!
.	.	16dd\	.	.	.	.	.	.	.	.	.
!	!	!LO:N:vis=4.	!	!	!	!	!	!	!	!	!
!	!	!LO:SIC:v:s=8.f#	!	!LO:MO:mod=16ddLL]	!	!	!	!	!	!	!
!	!	!LO:MO:mod=.	!	!	!	!	!	!	!	!	!
8B\	.	8.e/	.	16dd\LL	.	8r	.	.	8r	.	.
.	.	.	.	16dd\	.	.	.	.	.	.	.
!	!	!LO:MO:null:mod=8dd	!	!	!	!LO:MO:mod=8d	!	!	!	!	!
8G\J	.	.	.	16gg\	.	8d\L	Sae-	a-	8gg\	a-	a-
!	!	!LO:N:vis=8	!	!	!	!	!	!	!	!	!
!	!	!LO:MO:mod=.	!	!	!	!	!	!	!	!	!
.	.	16dd\	.	16bb\JJ	.	.	.	.	.	.	.
!LO:MO:mod=.	!LO:MO:mod=.	!LO:MO:mod=.	!LO:MO:mod=.	!LO:MO:mod=.	!LO:MO:mod=.	!LO:MO:mod=.	!LO:MO:mod=.	!LO:MO:mod=.	!LO:MO:mod=.	!LO:MO:mod=.	!LO:MO:mod=.
=yy	=yy	=yy	=yy	=	=yy	=yy	=yy	=yy	=yy	=yy	=yy
!	!	!	!	!LO:TX:t=P:problem:mixed beam	!	!LO:MO:mod=8c#L	!	!	!	!	!
8A\L	.	8e/L	.	8cc#\L	.	8c#\J	-cu-	-men	8ee\L	-men	-men
!	!	!	!	!	!	!LO:MO:mod=8dJ	!	!	!	!	!
16F#\L	.	16a/L	.	8dd\	.	8d\	-lo-	.	8ff#\J	.	.
16G\JJ	.	16f#/JJ	.	.	.	.	.	.	.	.	.
!LO:TX:t=P:problem:mixed beam	!	!	!	!	!	!	!	!	!	!	!
8A\L	.	8e/L	.	8e/	.	4c#\	-rum	a-	4ee\	a-	a-
8AA/J	.	8e/J	.	8cc#\J	.	.	.	.	.	.	.
!	!	!LO:LB:g=original	!	!	!	!	!	!	!	!	!
=26	=26	=26	=26	=26	=26	=26	=26	=26	=26	=26	=26
4D\	.	4d/	.	4dd\	.	4d\	a-	-men	4ff#\	-men	-men
4A\	.	4ee\	.	4ccc#\	.	4c#\	.	a-	4ee\	a-	a-
4D\	.	4ff#\	.	4ddd\	.	4d\	-men	-men	4ff#\	-men	-men
4r	.	4r	.	4r	.	4r	.	.	4r	.	.
!LO:MO:mod===	!	!LO:MO:mod===	!	!	!	!	!	!	!	!	!
==;;	==	==;	==;;	==	==	==	==	==	==	==	==
*-	*-	*-	*-	*-	*-	*-	*-	*-	*-	*-	*-
!!!system-decoration: [(g1)][(g2)][(g3)]
!!!ENC: Marcin Jachim
!!!END: 2020-05-15
!!!EED: Anna Matuszewska
!!!EEV: 2020-09-08
!!!EED-revision: Andrzej Borzym
!!!EEV-revision: 2025-03-04
!!!ENC-modern: Andrzej Borzym
!!!END-modern: 2025-03-03
